X:1
T:Je ne mange point de porc
T:Je ne mange point de porc
T:Claudin de Sermisy
C:Claudin de Sermisy
%%score [ 1 2 3 4 ]
L:1/8
Q:1/4=222
M:2/2
K:C
V:1 treble nm="Soprano" snm="S"
V:2 treble-8 nm="Alto" snm="A"
V:3 treble-8 nm="Tenor" snm="T"
V:4 bass nm="Bass" snm="B"
V:1
 z16 | c2 c2 B2 c2 d4 e4 | c3 B/A/ G2 c2 c2 B2 c4- | c4 z8 z4 | c2 c2 B2 c2 d4 e4 | %5
w: |Nous som- mes de l'or- dre|de * * * Saint- Ba- bou- yn,||L'or- dre ne dit my- e|
 c3 B/A/ G2 c2 c2 B2 c2 d2- | dc c4 B2 c4 z4 | z4 c2 d2 c2 B2 A2 G2 | z8 z2 G2 A2 G2 | %9
w: de * * * le- ver ma- tin, de|* le- ver ma- tin,|Dor- mir jus- qu'a pri- me,|Et boi- re|
 F2 E2 z8 z4 | e4 f2 e2 d2 e2 z4 | z8 z2 f4 e2- | e2 d2 e4 z2 A6 | c2 c2 B4 G4 A2 G2 | %14
w: bon vin,|Et boi- re bon vin,|Et din|* din din, Et|di- re ma- ti- nes, Et|
 B2 c2 d2 f2 e2 d2- dc c2- | c2 B2 c2 z2 z8 | z4 z2 d4 c4 B2 | c8 z8 | z8 z4 c2 d2 | %19
w: di- re ma- ti- nes sur * un pot|* de vin,|Un pot de|vin.|A nos-|
 e4 f4 e4 d2 e2 | f2 f2 e2 d2 e4 d4 | e2 f2 g2 f2 d8 | z16 | e2 f2 e2 d2 e4 c2 d2 | %24
w: tre di- ner le *|beau cha- * * pon gras,|La soupe au jou- net,||La piè- ce de boeuf et le|
 c2 B2 c4 z4 G4 | c4 d4 e8 | c8 z8 | z16 | c4 d4 e4 f4 | e2 f2 g2 f2 d4 c4 | c4 B4 c4 z2 c2 | %31
w: gras mou- ton, Et|don don don|don,||Et voi- la la|vi- * * e que nous|de- man- dons, A|
 e2 f2 gf ed e2 d4 c2 | c2 B2 c4 z8 | z16 | c2 d2 e2 g2 f2 e2 d4 | z16 | g2 f2 e2 d2 g2 f2 e2 d2 | %37
w: nos- tre gou- * * * ter le bon|vin clai- ret,||Pas- * tés * de pi- geons,||Et don don don, Et don don don,|
 z16 | z8 c2 d2 e2 f2 | efgf d2 c2 c2 B2 c4- | c16 |] %41
w: |Et voi- la la|vi- * e * que nous de- man- dons.||
V:2
 z16 | z8 f2 f2 e2 g2 | a2 f2 g2 a2 g2 g2 e3 d/c/ | g8 z8 | z8 f2 f2 e2 g2 | %5
w: |Nous som- mes de|l'or- dre de Saint- Ba- bou- yn, * *||L'or- dre ne dit|
 a2 f2 g2 a2 g2 g2 e2 g2- | ge f2 g4 e2 z2 c2 d2 | c2 B2 A2 G2 z8 | z2 g2 a2 g2 f2 e2 z4 | %9
w: my- e de le- ver ma- tin, de|* le- ver ma- tin, Dor- mir|jus- qu'a pri- me,|Et boi- re bon vin,|
 z4 z2 e4 f2 e2 d2 | e4 z8 f4 | e4 d2 e2 z8 | z8 z2 e4 e2 | e2 f2 g2 g2 d3 e fg e2- | %14
w: Et boi- re bon|vin, Et|din din din,|Et di-|re ma- ti- nes sur * * * un|
 ed c4 B2 c2 f4 e2 | d4 c2 z2 z8 | z4 z2 d4 ef g4 | e8 z8 | z4 c2 d2 e4 f4 | e4 a2 a2 g2 g2 f2 g2 | %20
w: * * pot * * * de|* vin,|Un pot * de|vin.|A nos- tre di-|ner le beau cha- pon gras, *|
 f4 g2 g2 g2 g2 g4 | g4 z8 z4 | e2 f2 g2 f2 d8 | G2 _B2 G2 F2 G4 z4 | g2 g2 g2 g2 g8- | g8 z4 G4 | %26
w: ||comme au mar- di gras,|La piè- ce de boeuf|et le gras mou- ton,|* Et|
 c6 d2 e8 | c4 z4 c4 d4 | e4 f4 e4 z4 | z8 z4 g4 | g4 g4 e4 z4 | z16 | z8 z2 c2 e2 f2 | %33
w: don don don|don, Et voi-|la la vie|nous|de- man- dons.||La bel- le|
 gf ed e2 d4 c2 c2 B2 | c2 z4 z2 z8 | c2 d2 e2 g2 f2 e2 d4 | z16 | z4 g2 f2 e2 d2 g2 f2 | %38
w: sa- * * * lade au ha- renc so-|ret,|Si- * sont * de sai- son,||Et don don don, Et don|
 e2 d2 c2 d2 e2 f2 e2 z2 | z4 z2 g2 g2 g2 e4- | e2 f2 g12 |] %41
w: don don, Et voi- la la vie|nous de- man- dons.||
V:3
 c2 c2 B2 c2 d4 e4 | c3 B/A/ G2 c2 c2 B2 c4 | c3 d e2 f2 d4 c2 z2 | c2 c2 B2 c2 d4 e4 | %4
w: Nous som- mes de l'or- dre|de * * * Saint- Ba- bou- yn,|Saint- * Ba- * bou- yn,|L'or- dre ne dit my- e|
 c3 B/A/ G2 c2 c2 B2 c4 | c3 d e2 f2 d4 c2 B2 | c4 d4 c4 z4 | z8 c2 d2 c2 B2 | A2 G2 z8 z2 g2 | %9
w: de * * * le- ver ma- tin,|de * le- * ver * *|ma- * tin,|Dor- mir jus- qu'a|pri- me, Et|
 a2 g2 f2 e2 z8 | g4 a2 g2 f2 e2 z4 | z8 z2 a4 g2 | f4 e4 z2 e4 c2 | c2 c2 d4 B4 c2 B2 | %14
w: boi- re bon vin,|Et boi- re bon vin,|Et din|din din, Et di-|re ma- ti- nes sur un|
 A2 G4 F2 G2 z4 z2 | z4 z2 d4 c4 B2 | c4 z2 f4 e2 d4 | c4 z4 c2 d2 e4 | f4 e4 z8 | %19
w: pot * de vin,|Un pot de|vin, Un pot de|vin. A nos- tre|di- ner|
 c4 d2 e2 e2 f2 e2 z2 | d4 c2 B2 c2 c2 d4 | z4 e2 f2 g2 f2 d4 | z16 | c2 d2 c2 B2 c4 e2 f2 | %24
w: le * beau cha- pon gras,|le * beau cha- pon gras,|La soupe au jou- net,||La piè- ce de boeuf et le|
 e2 d2 c2 G2 c2 d2 e4 | c4 z8 z4 | z8 c6 d2 | e4 f4 e4 z4 | z2 c4 B2 c4 d4 | e2 d2 e2 f2 g4 e4 | %30
w: gras mou- ton, Et don don don|don,|Et voi-|la la vie,|Et voi- la la|vi- * * e que nous|
 d4 d4 c2 c2 e2 f2 | g3 f ed g4 f2 fe dc | d2 d2 c4 z8 | z16 | z4 z2 c2 d2 e2 g2 f2 | e2 d2 z8 z4 | %36
w: de- man- dons. A nos- tre|gou- * * * ter le * bon * *|vin clai- ret,||Pas- * tés * de|pi- geons,|
 z4 g2 f2 e2 d2 g2 f2 | e2 d2 z8 c2 d2 | e2 f2 e2 z2 c2 B2 c2 d2 | edef g2 e2 d2 d2 c4- | c16 |] %41
w: Et don don don, Et don|don don, Et voi-|la la vie, Et voi- la la|vi- * e * que nous de- man- dons.||
V:4
 z8 F,2 F,2 E,2 G,2 | A,2 F,2 G,2 F,2 E,2 D,2 C,4 | F,4 C2 F,2 G,4 C,4- | C,4 z4 F,2 F,2 E,2 G,2 | %4
w: Nous som- mes de|l'or- dre de Saint- Ba- bou- yn,|Saint- Ba- * bou- yn,|* L'or- dre ne dit|
 A,2 F,2 G,2 E,2 D,2 D,2 C,4 | F,4 C2 F,2 G,4 A,2 G,2 | A,4 G,4 C,4 z4 | C2 D2 C2 B,2 A,2 G,2 z4 | %8
w: my- e de le- ver ma- tin,|de le- * ver * *|ma- * tin,|Dor- mir jus- qu'a pri- me,|
 z4 z2 G,2 A,2 G,2 F,2 E,2 | z4 z2 G,4 A,2 G,2 F,2 | E,4 z4 z4 z2 A,2- | A,2 G,2 F,4 E,2 z4 z2 | %12
w: Et boi- re bon vin,|Et boi- re bon|vin, Et|* din din din,|
 z8 z2 A,4 A,2 | A,2 A,2 G,4 G,4 F,2 G,2- | G,2 E,2 D,4 C,2 z4 z2 | z4 z2 F,4 E,2 D,4 | %16
w: Et di-|re ma- ti- nes sur un|* pot de vin,|Un pot de|
 C,4 z2 _B,4 C2 G,4 | C,2 D,2 E,4 F,4 E,4 | D,2 D,2 C,2 C,2 z2 C4 B,2 | C4 F,4 C,4 D,2 C,2 | %20
w: vin, Un pot. *|A nos- tre di- ner|le beau cha- pon, le *|beau * * cha- pon|
 D,4 z2 G,2 C,2 C,2 G,4 | C,4 z8 z4 | z4 E,2 F,2 G,2 F,2 D,4 | C,2 B,,2 C,2 D,2 C,4 C2 B,2 | %24
w: gras, le beau cha- pon|gras,|comme au mar- di gras,|La piè- ce de boeuf et le|
 C2 G,2 C,4 C,8 | z4 G,4 C4 D4 | E8 C4 z4 | C,4 D,4 E,4 F,4 | E,4 D,4 C,2 C4 B,2 | %29
w: gras * mou- ton,|Et don don|don don,|Et voi- la la|vie et voi- la la|
 C2 D2 C2 D2 G,4 C4 | G,4 G,4 C,4 z4 | z16 | z4 z2 C,2 E,2 F,2 G,3 F, | %33
w: vi- * * e que nous|de- man- dons.||La bel- le sa- *|
 E,D, G,4 F,3 E,D,C, D,2 D,2 | C,2 B,,B,, C,2 E,2 D,2 C,2 G,2 z2 | z4 z2 C,2 D,2 E,2 G,2 F,2 | %36
w: * * * * * * * lade au|* ha- * renc * so- * ret,|Si- * sont * de|
 E,2 D,2 z8 z4 | G,2 F,2 E,2 D,2 G,2 F,2 E,2 D,2 | C,2 D,2 E,2 F,2 E,2 D,2 C,C- CB, | %39
w: sai- son,|Et don don don, Et don don don,|Et voi- la la vie, Et voi- la * la|
 CDCD G,2 C2 G,2 G,2 C,4- | C,16 |] %41
w: vi- * e * que nous de- man- dons.||

